X: 211
T: Miss Christie of Durrie's Strathspey
C: J.Walker
O: Glen Collection
R: strathspey (originally reel)
B: Glen Collection p.21 #1
Z: 2007 converted to strathspey by John Chambers <jc:trillian.mit.edu>
M: C|
L: 1/8
K: C
B \
| "C"c2 B>c G<c B>c | "Dm"d>e f>d "G"c>B A<G \
| "C"c2 B>c "Dm"d>e f>d | "G7"e<c d>B "C"c2-c :|
|: f \
| "C"g2 e>g "Dm"f2 d>f | "F"a>f e>d "G"c>B A<G \
|1 "C"c2 B>c "Dm"d>e f>d | "G7"e<c d>B "C"c2-c \
:|2 "C"c<e "G7"d>f "C"e<g "F"f>a | "G7"g<e f>d "C"c2-c |]
